icon/fa/laptop-file.svg

<svg xmlns="http://www.w3.org/2000/svg" viewBox="0 0 640 512"><!--! Font Awesome Free 6.1.2 by @fontawesome - https://fontawesome.com License - https://fontawesome.com/license/free (Icons: CC BY 4.0, Fonts: SIL OFL 1.1, Code: MIT License) Copyright 2022 Fonticons, Inc.--><path d="M192 96c0 17.7 14.3 32 32 32h96v64h-32c-44.2 0-80 35.8-80 80v112c-20.9 0-38.7 13.4-45.3 32H48c-26.51 0-48-21.5-48-48V48C0 21.49 21.49 0 48 0h144v96zm48 176c0-26.5 21.5-48 48-48h256c26.5 0 48 21.5 48 48v144h32c8.8 0 16 7.2 16 16v16c0 35.3-28.7 64-64 64H256c-35.3 0-64-28.7-64-64v-16c0-8.8 7.2-16 16-16h32V272zm64 16v128h224V288H304zm16-192h-96V0l96 96z"/></svg>

<svg xmlns="http://www.w3.org/2000/svg" viewBox="0 0 640 512" height="1em" width="1em">
<!--! Font Awesome Free 6.1.2 by @fontawesome - https://fontawesome.com License - https://fontawesome.com/license/free (Icons: CC BY 4.0, Fonts: SIL OFL 1.1, Code: MIT License) Copyright 2022 Fonticons, Inc.-->
  <path d="M192 96C192 113.7 206.3 128 224 128H320V192H288C243.8 192 208 227.8 208 272V384C187.1 384 169.3 397.4 162.7 416H48C21.49 416 0 394.5 0 368V48C0 21.49 21.49 0 48 0H192V96zM240 272C240 245.5 261.5 224 288 224H544C570.5 224 592 245.5 592 272V416H624C632.8 416 640 423.2 640 432V448C640 483.3 611.3 512 576 512H256C220.7 512 192 483.3 192 448V432C192 423.2 199.2 416 208 416H240V272zM304 288V416H528V288H304zM320 96H224V0L320 96z"/>
</svg>
